src/lib/packages/icons/src/assets/filled/image-download.svg

<svg width="24" height="24" viewBox="0 0 24 24" fill="none" xmlns="http://www.w3.org/2000/svg">
<path d="M21.75 11V17C21.75 19.418 20.418 20.75 18 20.75H6C3.582 20.75 2.25 19.418 2.25 17V7C2.25 4.582 3.582 3.25 6 3.25H14C14.414 3.25 14.75 3.586 14.75 4C14.75 4.414 14.414 4.75 14 4.75H6C4.423 4.75 3.75 5.423 3.75 7V16.25L6.29004 13.71C6.68004 13.32 7.31996 13.32 7.70996 13.71L8.65002 14.6499C8.84002 14.8399 9.15998 14.8399 9.34998 14.6499L14.29 9.70996C14.68 9.31996 15.32 9.31996 15.71 9.70996L20.25 14.25V11C20.25 10.586 20.586 10.25 21 10.25C21.414 10.25 21.75 10.586 21.75 11ZM7.99304 7.75C7.30404 7.75 6.75 8.31 6.75 9C6.75 9.69 7.31395 10.25 8.00195 10.25C8.69095 10.25 9.25 9.69 9.25 9C9.25 8.31 8.69195 7.75 8.00195 7.75H7.99304ZM18.97 7.53003C19.039 7.59903 19.122 7.65389 19.213 7.69189C19.304 7.72989 19.402 7.75 19.5 7.75C19.598 7.75 19.695 7.72989 19.787 7.69189C19.879 7.65389 19.961 7.59903 20.03 7.53003L21.53 6.03003C21.823 5.73703 21.823 5.26199 21.53 4.96899C21.237 4.67599 20.762 4.67599 20.469 4.96899L20.249 5.18896V3C20.249 2.586 19.913 2.25 19.499 2.25C19.085 2.25 18.749 2.586 18.749 3V5.18896L18.5291 4.96899C18.2361 4.67599 17.761 4.67599 17.468 4.96899C17.175 5.26199 17.175 5.73703 17.468 6.03003L18.97 7.53003Z" fill="currentColor"/>
</svg>

<svg xmlns="http://www.w3.org/2000/svg" width="24" height="24" fill="none"><path fill="currentColor" d="M21.75 11v6c0 2.418-1.332 3.75-3.75 3.75H6c-2.418 0-3.75-1.332-3.75-3.75V7c0-2.418 1.332-3.75 3.75-3.75h8a.75.75 0 0 1 0 1.5H6c-1.577 0-2.25.673-2.25 2.25v9.25l2.54-2.54c.39-.39 1.03-.39 1.42 0l.94.94c.19.19.51.19.7 0l4.94-4.94c.39-.39 1.03-.39 1.42 0l4.54 4.54V11a.75.75 0 0 1 1.5 0ZM7.993 7.75c-.689 0-1.243.56-1.243 1.25s.564 1.25 1.252 1.25a1.25 1.25 0 0 0 0-2.5h-.009Zm10.977-.22a.755.755 0 0 0 .817.162.744.744 0 0 0 .243-.162l1.5-1.5a.75.75 0 0 0-1.061-1.061l-.22.22V3a.75.75 0 0 0-1.5 0v2.189l-.22-.22a.75.75 0 0 0-1.061 1.061l1.502 1.5Z"/></svg>
